X:1
T:Raleigh, 87.87 D
T:William James Kirkpatrick, 1915
T:Raleigh, 87.87 D
T:Public Domain
C:William James Kirkpatrick, 1915
Z:Public Domain
%%score ( 1 2 ) ( 3 4 )
L:1/8
M:6/4
K:G
V:1 treble 
V:2 treble 
V:3 bass 
V:4 bass 
V:1
 [B,D]2 | (D2 G2) [=FB]2 (B2 c2) [DB]2 | [DB]4 [CA]2 [CE]4 [CG]2 | (G2 F2) [CE]2 [CF]4 [CD]2 | %4
 [B,D]2 [DB]8 [B,D]2 | (D2 G2) [=FB]2 (B2 c2) [DB]2 | [=Fd]4 [Ec]2 [CE]4 [EG]2 | %7
 ([DF]2 [FA]2) [EG]2 [DF]4 [A,^C]2 | [A,E]2 [A,D]8 [Gd]2 | (d2 c2) [GB]2 [^Ae]4 [Bd]2 | %10
 [Gd]4 [G^c]2 [F=c]4 [Fc]2 | (c2 B2) [FA]2 [Fd]4 [FA]2 | [Ac]2 [GB]8 D2 | %13
 (D2 G2) [DA]2 [DB]4 [Gd]2 | (d2 c2) [=GB]2 [Ac]4 A2 | (G2 F2) E2 D2 z2 G2 | (F2 G2 F2) [DG]4 |] %17
V:2
 x2 | B4 E4 x4 | x12 | C4 x8 | x12 | B4 E4 x4 | x12 | x12 | x12 | G4 x8 | x12 | F4 x8 | x10 D2 | %13
 D4 x8 | ^G4 x4 A2 x2 | G2 F2 E2 D2 G2 x2 | A6 x4 |] %17
V:3
 [G,,G,]2 | [G,,G,]4 [G,,G,]2 [G,,G,]4 [G,,G,]2 | [C,G,]4 [C,G,]2 [C,G,]4 [C,A,]2 | %3
 [D,A,]4 [D,A,]2 [D,A,]4 [D,F,]2 | [G,,G,]2 [G,,G,]8 [G,,G,]2 | %5
 [G,,G,]4 [G,,G,]2 [G,,G,]4 [G,,G,]2 | [B,,G,]4 [C,G,]2 [C,G,]4 [C,G,]2 | %7
 [A,,A,]4 [A,,A,]2 [A,,A,]4 [A,,E,]2 | [D,G,]2 [D,F,]8 [G,B,]2 | (B,2 E2) [G,D]2 [G,^C]4 [G,D]2 | %10
 [B,D]4 [_B,E]2 [A,D]4 [A,D]2 | [D,A,]4 [D,A,]2 [D,A,]4 [D,D]2 | [G,D]2 [G,D]8 [G,B,]2 | %13
 [G,B,]4 [D,F,]2 G,4 [=F,B,]2 | (B,2 E2) [E,E]2 [A,E]4 A,2 | (G,2 F,2) E,2 D,2 z2 [E,B,]2 | %16
 [D,C]6 [G,,B,]4 |] %17
V:4
 x2 | x12 | x12 | x12 | x12 | x12 | x12 | x12 | x12 | G,4 x8 | x12 | x12 | x12 | x6 G,4 x2 | %14
 E,4 x4 A,2 x2 | G,2 F,2 E,2 D,2 x4 | x10 |] %17

